X:1
T: Robinia
N:
C:Ludwig van Beethoven
S:
A:
O:
R:
M:4/4
K:C
I:speed 200
%W: A1
% voice 1 (1 lines, 34 notes)
K:C
M:4/4
L:1/16
c4 |e4 d4 c4 e4 |e4 ^c4 d4 =c4 |c4 A4 B4 d4 |d4 B4 c4 d4 |e4 d4 c4 e4 |e4 ^c4 d4 =c4 |c2 B2 A2 G2 A4 B4 |c8 z4 c4 |
%W: A2
% voice 1 (1 lines, 33 notes)
e4 d4 c4 e4 |e4 ^c4 d4 =c4 |c4 A4 B4 d4 |d4 B4 c4 d4 |e4 d4 c4 e4 |e4 ^c4 d4 =c4 |c2 B2 A2 G2 A4 B4 |c8 z4 e4 |
%W: B1
% voice 1 (1 lines, 59 notes)
f2 g2 f2 e2 d2 e2 d2 c2 |B2 c2 B2 A2 G2 A2 B2 A2 |c2 d2 c2 B2 c2 d2 e2 f2 |g2 a2 g2 ^f2 g2 e2 a2 g2 |f2 g2 a2 g2 f2 e2 d2 c2 |B2 c2 B2 A2 B2 G2 A2 B2 |c2 d2 e2 f2 g2 f2 e2 d2 |c8 z4 e4 |
%W: B2
% voice 1 (1 lines, 58 notes)
f2 g2 f2 e2 d2 e2 d2 c2 |B2 c2 B2 A2 G2 A2 B2 A2 |c2 d2 c2 B2 c2 d2 e2 f2 |g2 a2 g2 ^f2 g2 e2 a2 g2 |f2 g2 a2 g2 f2 e2 d2 c2 |B2 c2 B2 A2 B2 G2 A2 B2 |c2 d2 e2 f2 g2 f2 e2 d2 |c8 z4 ||

